X:933
T:Reel 933
M:4/4
K:Dmaj
L:1/8
AG|F>D (3DDD DDDB,DA,B,|DEFA BAFA|GEED EFED|B,EED EABc|d>D (3DDD B,DA,D|A,DDA GAFA|GABc dAFD|EDB,C D2:|FA|d2dc BABAFD|FDDE FAdA|FAED FEEG|FE (3EEE B2Ac|dcdA BAFA|FEDF EDB,D|G2EG FABA|FDEC D2|
